X: 1962
T: Yandım Allah Yandım Yatamıyorum
C: Nuri Üstünses
O: Turkey
F: http://compmusic.upf.edu/node/140
N: muhayyer--turku--sofyan--yandim_allah--sivas
N: makam= muhayyer
N: form= turku
N: usul= sofyan = 4/4
M: 4/4
L: 1/16
K: C _2/4B ^3/4f  
Q: 1/4=90
%%MIDI tuningsystem comma53
z4 e2e2 e2c2 edd2  | d2c2 d2B2 c2B2 dcB2  | \
w:   |   | 
A4 e2e2 e2c2 edd2  | 
w:   | 
d2c2 d2B2 c2B2 dcB2  | A2z2 c2d2 e2e4d2  | \
w:   |   | 
d2g4d2 d4 cBA2  | 
w:   | 
c4 cdB2 B2A2 cBcA  | A12 z4  | z4 c'2c'2 c'2b2 b4  | \
w:   |   |  Yan dım_ Al *  lah   | 
b2a2 a4 a2a6  | 
w:  yan *  dım  ya ta  | 
a2ac' b2a2 a2gf g2f2  | z4 c'2c'2 c'2b2 b4  | \
w:  mı yo *  *  *  rum    |  Yan dım_ Al *  lah   | 
b2a2 a4 a2a6  | 
w:  yan *  dım  ya ta  | 
a2ac' b2a2 a2gf g2f2  | z4 f2g2 a4 a4  | \
w:  mı yo *  *  *  rum    |  Genç lik_ el den   | 
a4 a2e2 e2e4d2  | 
w:  git ti  *  tu ta  | 
d6c2 d4 d2c2  | d2c2 d2B2 c2A2 A4  | \
w:  mı *  yo rum   |  vah  *  vah    | 
z4 e2e2 e2c2 edd2  | d2c2 d2B2 c2B2 dcB2  | 
w:  A man_ a *  *  *  man_  |  a *  man_ *  ey    | 
A4 e2e2 e2c2 edd2  | d2c2 d2B2 c2B2 dcB2  | \
w:  *  Gü lüm_ a *  *  *  man_  |  a *  man_ *  ey    | 
A4 c'2c'2 c'2b2 b4  | 
w:  *  Yâ rin  bah *  çe  | 
b2a2 a4 a2a6  | a2ac' b2a2 a2gf g2f2  | \
w:  sin *  de  bir  bül  |  bül_ *  *  i *  dim    | 
A4 c'2c'2 c'2b2 b4  | 
w:  *  Yâ rin  bah *  çe  | 
b2a2 a4 a2a6  | a2ac' b2a2 a2gf g2f2  | \
w:  sin *  de  bir  bül  |  bül_ *  *  i *  dim    | 
z4 f2g2 a2a6  | a4 a2e2 e2e4d2  | 
w:  A lın dı  dil  |  le rim  *  ö te  | 
d6c2 d4 d2c2  | d2c2 d2B2 c2A2 A4  | \
w:  mi *  yo rum   |  vah  *  vah    | 
z4 e2e2 e2c2 edd2  | d2c2 d2B2 c2B2 dcB2  | 
w:  A man_ a *  *  *  man_  |  am *  man_ *  ey    | 
A4 e2e2 e2c2 edd2  | d2c2 d2B2 c2B2 dcB2  | \
w:  *  Gü lüm_ a *  *  *  man_  |  a *  man_ *  ey    | 
A2z2 c2d2 e2e4d2  | 
w:  *  Bu gün  ka ra   | 
d2g4d2 d4 cBA2  | c4 cdB2 B2A2 cBcA  | \
w:  göz *  lü  yâr dan    |  Ay rıl *  *  dım_ oy   | 
A12 z4  | z4 e2e2 e2c2 edd2  | 
w:  oy    |   | 
d2c2 d2B2 c2B2 dcB2  | A4 e2e2 e2c2 edd2  | \
w:   |   | 
d2c2 d2B2 c2B2 dcB2  | 
w:   | 
A2z2 c2d2 e2e4d2  | d2g4d2 d4 cBA2  | \
w:   |   | 
c4 cdB2 B2A2 cBcA  | 
w:   | 
A12 z4  | z4 c'2c'2 c'2b2 b4  | b2a2 a4 a2a6  | \
w:   |  Yan dım_ Al *  lah   |  yan *  dım  ya ta  | 
a2ac' b2a2 a2gf g2f2  | 
w:  mı yo *  *  *  rum    | 
z4 c'2c'2 c'2b2 b4  | b2a2 a4 a2a6  | \
w:  Yan dım_ Al *  lah   |  yan *  dım  ya ta  | 
a2ac' b2a2 a2gf g2f2  | 
w:  mı yo *  *  *  rum    | 
z4 f2g2 a4 a4  | a4 a2e2 e2e4d2  | d6c2 d4 d2c2  | \
w:  Genç lik_ el den   |  git ti  *  tu ta  |  mı *  yo rum   | 
d2c2 d2B2 c2A2 A4  | 
w:  vah  *  vah    | 
z4 e2e2 e2c2 edd2  | d2c2 d2B2 c2B2 dcB2  | \
w:  A man_ a *  *  *  man_  |  a *  man_ *  ey    | 
A4 e2e2 e2c2 edd2  | 
w:  *  Gü lüm_ a *  *  *  man_  | 
d2c2 d2B2 c2B2 dcB2  | A4 c'2c'2 c'2b2 b4  | \
w:  a *  man_ *  ey    |  *  Yâ rin  bah *  çe  | 
b2a2 a4 a2a6  | a2ac' b2a2 a2gf g2f2  | 
w:  sin *  de  bir  bül  |  bül_ *  *  i *  dim    | 
A4 c'2c'2 c'2b2 b4  | b2a2 a4 a2a6  | \
w:  *  Yâ rin  bah *  çe  |  sin *  de  bir  bül  | 
a2ac' b2a2 a2gf g2f2  | 
w:  bül_ *  *  i *  dim    | 
z4 f2g2 a2a6  | a4 a2e2 e2e4d2  | d6c2 d4 d2c2  | \
w:  A lın dı  dil  |  le rim  *  ö te  |  mi *  yo rum   | 
d2c2 d2B2 c2A2 A4  | 
w:  vah  *  vah    | 
z4 e2e2 e2c2 edd2  | d2c2 d2B2 c2B2 dcB2  | \
w:  A man_ a *  *  *  man_  |  am *  man_ *  ey    | 
A4 e2e2 e2c2 edd2  | 
w:  *  Gü lüm_ a *  *  *  man_  | 
d2c2 d2B2 c2B2 dcB2  | A2z2 c2d2 e2e4d2  | \
w:  a *  man_ *  ey    |  *  Bu gün  ka ra   | 
d2g4d2 d4 cBA2  | 
w:  göz *  lü  yâr dan    | 
c4 cdB2 B2A2 cBcA  | A12 z4  | |


